X:1
T:Title
%%score { ( 1 4 ) | ( 2 3 ) }
L:1/8
M:4/4
K:Ab
V:1 treble nm="Grand Piano"
V:4 treble 
V:2 treble 
V:3 treble 
V:1
 z4 z2[Q:1/4=108] E2 | c2 c2 cBcd | [Ac]2 [GB]2 [GB]2 z B, | B2 B2 BABc | [DB]2 [CA]2 [CA]2 [CE]2 | %5
 [DF]2 [DF]2 [FA][=EG][FA][DF] | [CE]2 [CA]2 [Ec]4 | [DB]4 A2 G2 | [CA]6 z2 | F4 F2 F2 | %10
 [CA]8[K:bass] | c4 B2 A2 |[M:7/8] [GB]-[GB]-[GB]- [GB]- [GB]3 |[M:1/4] E2 | %14
[M:4/4] [Ec]2 [_Ge]2 [Fd][Ec][DB]A | z4 [FA]2 z2 | E4 z4 |[M:3/4] [CE]6 |] %18
V:2
 z4 z2 [A,C]2 | [A,EA]2 [A,EA]2 AGAB | [E,E]2 [E,E]2 [E,E]2 .[E,D]2 | z4 .D2 .[G,D]2 | %4
 [A,,A,]2 [A,,E,]2 [A,,E,]2 [A,,A,]2 | [D,A,]2 [D,A,]2 [D,A,]2 [D,A,]2 | %6
 [A,,A,]2 [A,,E,]2 [A,,A,]4 | [B,,F,]4 [E,C]2 [E,B,]2 | [A,,E,]6 z2 | [D,A,D]4 [D,A,D]2 [D,A,D]2 | %10
 [A,,A,]2 A,,2 A,,4 | [A,E]4 [G,B,E]2 [F,CF]2 |[M:7/8] [E,E]2 E,2 E,3 |[M:1/4] D z | %14
[M:4/4] [A,,A,]2 [A,,C]2 [A,,A,]2 z C | D,2 D,2 z2 D2 | [A,C]2 G,2 [E,A,C]2 [E,B,D]2 | %17
[M:3/4] [A,,A,]6 |] %18
V:3
 x8 | z4 [A,E]2 [A,E]2 | x8 | [E,G,D]2 [E,G,D]2 [E,G,]-[E,G,C]E,-[E,A,E] | x8 | x8 | x8 | x8 | x8 | %9
 x8 | x8 | x8 |[M:7/8] x7 |[M:1/4] E,2 |[M:4/4] z4 z2 [A,,A,]2 | z4 D,4 | E,4 z4 |[M:3/4] x6 |] %18
V:4
 x8 | x8 | z4 z2 E2 | x8 | x8 | x8 | x8 | x8 | x8 | x8 | z2[K:bass] E,2 E,4 | x8 | %12
[M:7/8] z2 E2 E3 |[M:1/4] z B, |[M:4/4] x8 | [A,DG]2 [A,DF]2 A,2- [A,F]2 | z2 B,2 E2 E2 | %17
[M:3/4] x6 |] %18

